X: 1
T: White Cockade
R: march
Z: 2011 John Chambers <jc:trillian.mit.edu>
S: printed MS of unknown origin
M: C|
L: 1/8
K: G
GA \
| "G"BABd cBAG | "G"B2B2 B2GA | "G"BABd cBAG | "D7"B2A2 A2GA | "G"B2d2 cBAG |
| "G"B2d2 g2ga | "G"bagf "C"efge | "G"d2B2 B2 :: Bc | "G"d2B2 g2Bc | "G"d2d2 d2Bc |
| "G"d2B2 g2fg | "D7"a2A2 A2GA | "G"B2d2 "D"cBAG | "Em"B2d2 "G"g2ga | "G"bagf "C"efge | "G"d2B2 B2 :|

%%newpage
% sep 3 1 500
% sep 1 1 500
%%center --- POLKAS ---

%%sep 1 1 500
%%sep 1 1 500

